X:1
T:Diaphenia - Pilkington
T:James Gibb editions
T:#
%%score [ 1 2 3 4 ]
L:1/8
M:3/4
K:Bb
V:1 treble nm="Soprano" snm="S"
V:2 treble nm="Alto" snm="A"
V:3 treble-8 nm="Tenor" snm="T"
V:4 bass nm="Bass" snm="B"
V:1
 z2 c2 c2 |"^Diaphenia" c3 f e2 | d4 c2 | (e2 e2)"^Francis Pilkington\n(c.1562-1638)" d2 | c2 c4 | %5
w: Di- a-|phe- ni- a,|like the|daff- a- down-|dil- ly,|
w: Di- a-|phe- ni- a,|like the|spread\- * ing|ro- ses,|
w: Di- a-|phe- ni- a,|like to|all * things|bles- sed,|
 c2 c2 c2 | c4 e2 | d4 c2 | B2 B2 F2 | A4 c2 | f6 | f3 e c2 | d4 d2 | de f2 c2 | d4 =e2 | f6 | %16
w: White as the|sun, fair|as the|li- ly; Heigh-|ho, heigh-|ho,|how I do|love thee!|I do love thee|as my|lambs|
w: That in thy|sweets, all|sweets en-|clo- ses: Fair|sweet, fair|sweet,|how I do|love thee!|I do love thee|as each|flow'r|
w: When all thy|prai- ses|are ex-|press- ed; Dear|joy, dear|joy,|how I do|love thee!|As the birds do|love the|spring,|
 cd e2 c2 | e2 d4 | c4 z2 | f2 e2 c2 | d4 d2 | e2 c4 | B2 B4- | B4 z2 |] %24
w: are be- lov- ed|of their|dams,|How blest were|I if|thou would'st|prove me!||
w: loves the sun's life-|giv- ing|pow'r,|For dead, thy|breath to|life might|move me.||
w: or the bees their|care- ful|king,|Then in re-|quite, sweet|vir- gin,|love me.||
V:2
 z2 A2 B2 | A2 B2 G2 | B4 A2 | (B2 c2) B2 | (BA) A2 (B2 | _A2) A2 A2 | (B2 (_A2) Bc) | B4 A2 | %8
w: Di- a-|phe- ni- a,|like the|daff- a- down-|dil- * ly, white|* as the|sun, fair * *|as the|
w: Di- a-|phe- ni- a,|like the|spread\- * ing|ro\- * ses, that|* in thy|sweets, * all *|sweets en-|
w: Di- a-|phe- ni- a,|like to|all * things|bles\- * sed, when|* all thy|prai\- * ses *|are ex-|
 B2 B2 F2 | A4 A2 | d4 (B2 | d2 B2 A2 | B4 B2 | Bc d2 A2 | (BA B2) c2) | c6 | cc c2 G2 | c2 =B4 | %18
w: li- ly; Heigh-|ho, heigh-|ho, how|* I do|love thee!|I do love thee|as * my *|lambs|are be- lo- ved|of their|
w: clo- ses: Fair|sweet, fair|sweet, how|* I do|love thee!|I do love thee|as * each *|flow'r|loves the sun's life-|giv- ing|
w: press- ed; Dear|joy, dear|joy, how|* I do|love thee!|As the birds do|love * * the|spring,|or the bees their|care- ful|
 G4 z2 | c2 B2 A2 | B4 _A2 | B4 A2 | G2 F4- | F4 z2 |] %24
w: dams,|How blest were|I if|thou would'st|prove me!||
w: pow'r,|For dead, thy|breath to|life might|move me.||
w: king,|Then in re-|quite, sweet|vir- gin,|love me.||
V:3
 z2 F2 G2 | F2 D2 E2 | (F6 | G4) (F2- | F4 FG | E6) | (G2 F2) ((GA) | F6-) | F4 z2 | z2 F4- | F6 | %11
w: Di- a-|phe- * ni-|a,|* white,|||* * fair, *|||Heigh\-||
w: Di- a-|phe- * ni-|a,|* ro\-|||ses, * all *|sweets,||Fair||
w: Di- a-|phe- * ni-|a,|* bles\-|||sed, * praise *|||Dear||
 B2 G2 F2- | F6 | F2 B2 (F2- | F2 G2) (B2- | B2 (A2) G2) | (_A2 G4- | G6 | E6) | (A2 G2) (F2- | %20
w: I love thee!||* I love|* * thee,|* * be-|lo\- *|||ved, if thou|
w: I love thee!||* I love|* * thee,|* thy *|breath\- *|||* to life|
w: I love thee!||* I love|* * thee,|* in re-|quite, *|||sweet * vir\-|
 F6 | G2) F4 | E2 D4- | D4 z2 |] %24
w: |* would'st|prove me!||
w: |* might|move me.||
w: |* gin,|love me.||
V:4
 z2 F,2 =E,2 | C,2 B,,4- | B,,2 D,2 E,2- | E,D, (C,C,) (D,B,,) | (F,,2 C,2) (D,E,) | %5
w: Di- a-|phe- ni\-|* a, like|* the daff- a- down\- *|dil\- * ly, *|
w: Di- a-|phe- ni\-|* a, like|* the spread\- * ing *|ro\- * ses, *|
w: Di- a-|phe- ni\-|* a, like|* to all * things *|bles\- * sed, *|
 (_A,,B,, C,_D, E,2) | =E,2 (C,2 _E, (F,- | F,2) D,2 E,2- | E,2) D,2 z2 | z2 C,2 E,2 | B,,4 D,2 | %11
w: white, * * * *|faire as the li\-||* ly;|Heigh ho,|heigh ho,|
w: ro\- * * * *|ses, all the sweets|||Fair sweet,|fair sweet,|
w: prai\- * * * *|ses, all * *|* ex- press\-|* ed;|Dear joy,|dear joy,|
 (F,B,,) E,2 F,2- | F,2 B,,2 D,2 | B,,4 (C,E,) | F,2 G,4 | F,6- | F,2 (E,C,) (E,2 | (C, D,3 F,2)) | %18
w: I * love *|* thee! I|love thee *|as my|lambs|* are * be-|lo\- * *|
w: I * love *|* thee! I|love thee *|as each|flow'r|* love the sun,||
w: I * love *|* thee! I|love thee, *|I love|thee,|* I * love||
 E,4 C,2- | C,2 E,2 F,2 | D,2 B,,4- | B,,C,- C,2 F,,2 | B,,2 B,,4- | B,,4 z2 |] %24
w: ved, How|* blest were|I if|* thou * would'st|prove me!||
w: * For|* dead, thy|breath to|* life * might|move me.||
w: thee, Then|* in re-|quite, sweet|* vir\- * gin,|love me.||

